src/app/assets/svg/social-share.svg

<?xml version="1.0" encoding="UTF-8"?>
<svg width="38px" height="41px" viewBox="0 0 38 41" version="1.1" xmlns="http://www.w3.org/2000/svg" xmlns:xlink="http://www.w3.org/1999/xlink">
    <defs>
        <polygon id="path-1" points="0 0 38 0 38 41 0 41"></polygon>
    </defs>
    <g id="Page-1" stroke="none" stroke-width="1" fill="none" fill-rule="evenodd">
        <g id="Blue-Sky-Product-Page" transform="translate(-764.000000, -3148.000000)">
            <g id="media-circle-copy-2" transform="translate(744.000000, 3148.000000)">
                <g id="medial-icon" transform="translate(20.000000, -0.000000)">
                    <mask id="mask-2" fill="white">
                        <use xlink:href="#path-1"></use>
                    </mask>
                    <g id="Clip-2"></g>
                    <path d="M30.7369309,35.489858 C29.5644641,35.489858 28.605173,34.4584178 28.605173,33.1906694 C28.605173,31.9300203 29.5644641,30.8995943 30.7369309,30.8995943 C31.9160006,30.8995943 32.8752917,31.9300203 32.8752917,33.1906694 C32.8752917,34.4584178 31.9160006,35.489858 30.7369309,35.489858 M7.25646627,23.3945233 C6.07833987,23.3945233 5.12565159,22.3640974 5.12565159,21.0963489 C5.12565159,19.8296146 6.07833987,18.8042596 7.25646627,18.8042596 C8.43553592,18.8042596 9.39482699,19.8296146 9.39482699,21.0963489 C9.39482699,22.3640974 8.43553592,23.3945233 7.25646627,23.3945233 M30.7369309,5.50912779 C31.9160006,5.50912779 32.8752917,6.54056795 32.8752917,7.80831643 C32.8752917,9.06896552 31.9160006,10.1004057 30.7369309,10.1004057 C29.5644641,10.1004057 28.605173,9.06896552 28.605173,7.80831643 C28.605173,6.54056795 29.5644641,5.50912779 30.7369309,5.50912779 M25.5490245,27.7423935 L14.4855781,21.8478702 C14.5082163,21.5993915 14.5195353,21.3509128 14.5195353,21.0963489 C14.5195353,20.5121704 14.4619967,19.9401623 14.3403167,19.3945233 L25.5612868,13.2748479 C26.8780718,14.7170385 28.7145907,15.6105477 30.7369309,15.6105477 C34.7410515,15.6105477 38,12.1125761 38,7.80831643 C38,3.5030426 34.7410515,0 30.7369309,0 C26.7337537,0 23.4814079,3.5030426 23.4814079,7.80831643 C23.4814079,7.94523327 23.4861242,8.0872211 23.4917837,8.22413793 L11.4982872,14.7718053 C10.3078985,13.8397566 8.84019262,13.2931034 7.25646627,13.2931034 C3.25234573,13.2931034 0,16.7910751 0,21.0963489 C0,25.4016227 3.25234573,28.9046653 7.25646627,28.9046653 C9.17599166,28.9046653 10.9200715,28.1034483 12.2142183,26.7931034 L23.4917837,32.7941176 C23.4861242,32.9239351 23.4814079,33.0598377 23.4814079,33.1906694 C23.4814079,37.4969574 26.7337537,41 30.7369309,41 C34.7410515,41 38,37.4969574 38,33.1906694 C38,28.8864097 34.7410515,25.3884381 30.7369309,25.3884381 C28.7042149,25.3884381 26.8658095,26.2900609 25.5490245,27.7423935 Z" id="Fill-1" fill="#4273B9" mask="url(#mask-2)"></path>
                </g>
            </g>
        </g>
    </g>
</svg>

<svg xmlns="http://www.w3.org/2000/svg" xmlns:xlink="http://www.w3.org/1999/xlink" width="38" height="41"><defs/><defs><path id="a" d="M0 0h38v41H0z"/></defs><g fill="none" fill-rule="evenodd"><mask id="b" fill="#fff"><use xlink:href="#a"/></mask><path fill="#4273B9" d="M30.737 35.49c-1.173 0-2.132-1.032-2.132-2.3 0-1.26.96-2.29 2.132-2.29 1.179 0 2.138 1.03 2.138 2.29 0 1.268-.959 2.3-2.138 2.3M7.257 23.395c-1.179 0-2.131-1.03-2.131-2.299 0-1.266.952-2.292 2.13-2.292 1.18 0 2.139 1.026 2.139 2.292 0 1.268-.96 2.299-2.139 2.299m23.48-17.886c1.18 0 2.14 1.032 2.14 2.3 0 1.26-.96 2.291-2.14 2.291-1.172 0-2.13-1.031-2.13-2.292 0-1.267.958-2.299 2.13-2.299M25.55 27.742l-11.063-5.894a8.246 8.246 0 00-.146-2.453l11.221-6.12c1.317 1.442 3.154 2.336 5.176 2.336C34.74 15.61 38 12.113 38 7.808S34.741 0 30.737 0c-4.003 0-7.256 3.503-7.256 7.808 0 .137.005.28.01.416l-11.993 6.548a6.851 6.851 0 00-4.242-1.479C3.252 13.293 0 16.791 0 21.096c0 4.306 3.252 7.809 7.256 7.809 1.92 0 3.664-.802 4.958-2.112l11.278 6.001a9.23 9.23 0 00-.01.397c0 4.306 3.252 7.809 7.255 7.809C34.74 41 38 37.497 38 33.19c0-4.304-3.259-7.802-7.263-7.802-2.033 0-3.871.902-5.188 2.354z" mask="url(#b)"/></g></svg>
